libs/ui/packages/crypto-icons/src/svg/BCPT.svg

<svg width="24" height="24" viewBox="0 0 24 24" fill="none">
<path d="M12 20.25C7.44375 20.25 3.75 16.5562 3.75 12C3.75 7.44375 7.44375 3.75 12 3.75C16.5562 3.75 20.25 7.44375 20.25 12C20.25 16.5562 16.5562 20.25 12 20.25ZM12 19.4235C16.0995 19.4235 19.4235 16.0995 19.4235 12C19.4235 7.9005 16.0995 4.5765 12 4.5765C7.9005 4.5765 4.5765 7.9005 4.5765 12C4.5765 16.0995 7.9005 19.4235 12 19.4235ZM16.5322 9.09C16.656 11.2935 14.6198 11.8755 14.6198 11.8755C16.947 12.2077 16.8225 14.2035 16.8225 14.2035C16.8225 17.445 13.206 17.5718 13.206 17.5718H8.13375V6.429H12.7073C16.5323 6.5955 16.5322 9.09 16.5322 9.09ZM10.7527 8.42475V11.1263H12.5828C12.5828 11.1263 13.8712 11.085 13.9537 10.0455V9.38025C13.9537 9.38025 13.9537 8.508 12.7065 8.42475H10.7527ZM14.2028 14.5372V13.8713C14.2028 13.8713 14.2027 12.9975 12.9562 12.9142H10.752V15.618H12.8317C12.8317 15.618 14.1202 15.5767 14.2035 14.5365L14.2028 14.5372Z" fill="#404040"/>
</svg>

<svg width="24" height="24" viewBox="0 0 24 24" fill="none"><path fill="#404040" d="M12 20.25a8.25 8.25 0 1 1 0-16.5 8.25 8.25 0 0 1 0 16.5m0-.826a7.424 7.424 0 1 0-.001-14.848A7.424 7.424 0 0 0 12 19.424M16.532 9.09c.124 2.204-1.912 2.786-1.912 2.786 2.327.332 2.203 2.328 2.203 2.328 0 3.241-3.617 3.368-3.617 3.368H8.134V6.429h4.573c3.825.167 3.825 2.661 3.825 2.661m-5.78-.665v2.701h1.83s1.29-.041 1.372-1.08V9.38s0-.872-1.248-.955zm3.45 6.112v-.666s0-.873-1.246-.957h-2.204v2.704h2.08s1.288-.041 1.371-1.082z"/></svg>
